X:1
T:Lacreme napulitane
T:Lacreme napulitane
T:Francesco Buongiovanni
T:Libero Bovio
T:mia cara madre che sso' che sso' 'e denare ? pe' chi se chiagne a patria nun so' niente mo tengo quacche dollaro e me pare ca nun so' stato maie tanto pezzente me sonno tutt 'e notte a casa mia e de criature meie ne sento 'a voce ma a vuie ve sonno comm 'a na' maria cu 'e spade 'mpietto 'nnanz 'o figlio 'ncroce e 'nce ne costa lacreme st' america a nuje napulitane pe' nuje ca 'nce chiagnimmo 'o cielo e napule comm' e' amaro stu' pane 
T:m'avite scritto che assuntulella chiamma chi l'ha lassata sta' luntana ancora che v'aggia di' si 'e figlie vonno 'a mamma facitela turna' a chella signora io no nun torno me ne resto fore e resto a fatica' pe tutte quante jo c'aggio perzo a casa patria e onore io so' carne 'e maciello so' emigrante e 'nce ne costa lacreme st' america a nuje napulitane pe' nuje ca 'nce chiagnimmo 'o cielo e napule comme e' amaro stu pane 
C:Francesco Buongiovanni
Z:Libero Bovio
%%score 1 { ( 2 4 ) | ( 3 5 ) }
L:1/8
Q:1/4=78
M:2/4
K:C
V:1 treble nm="Voice"
V:2 treble nm="Piano"
V:4 treble 
V:3 bass 
V:5 bass 
V:1
 z2 z |: z4 | z4 | z4 | z4 | z4 | z4 | z4 | z E F G |{FG} F E2 E | E ^F ^G c | (3(B/c/B/) A3- | %12
w: ||||||||Mia ca\- ra|ma\- dre, sta|pe' tra\- sì Na\-|ta- * * le,|
 A2 z A | B B B B | B B c d | (3B/c/B/ A3- | A4 | G G/ G/ G G | F G A G | E4- | E4 | B B/ B/ B ^c | %22
w: * e a|sta' lun\- ta\- no|cchiù me sa\- pea\-|ma- * * ro. . .||Com\- me vur\- ria appiec\-|cià duje tre bian\-|ca\-|le,|com\- me vur\- ria sen\-|
 B A{/B} A ^G | B4 | B2 z (G | c c ^G G | A A B d | (3(B/)c/B/) A3- | A A B c | d d d d | B2 d2 | %31
w: ti' nu zam\- pu\-|gna-|ro! A'e|nin\- ne mie fa\-|ci\- te\- le 'o pre\-|se- * * pio|* e a ta\- vo\-|la mer\- ti\- te 'o|piat\- to|
 e4 | e2 z (e | e A A A | B ^c d e | f3/2) e/ d2- | d4 | B B/ c/ d B | c A B d | (3(B/c/B/) A3- | %40
w: mi\-|o fa\-|ci\- te quan\- no è|a se\- ra d'a Vi\-|gi\- li a. . .||com\- me si 'miezz' 'a|vuje stes\- se pu\-|ri- * * o. . .|
 A2 z2 || !tenuto!e !tenuto!e/ !tenuto!e/ !tenuto!e !tenuto!e | %42
w: |E 'nce ne co\- sta|
 !tenuto!^d !tenuto!d !tenuto!f !tenuto!f | (e c A2-) | A2 z2 | A2 (B c | e2 A2 |({BA)} ^G4 | %48
w: la\- cre\- me st'A\-|me\- ri\- ca. . .||a nuje na\-|pu\- li\-|ta-|
 ^G2) z B | d d/ d/ d d | d d f g | !^!e d c2- | c z (e c | _B2) ^G B | (3(_B/c/B/) A3- |1,2 %55
w: ne pe'|nu\- je ca nce chia\-|gnim\- m 'o cie\- lo 'e|Na\- pu\- le. . .|* comm' è a\-|ma\- ro stu'|ppa- * * ne!. . .|
 A z z2 :|3 A z z2 |] %57
w: ||
V:2
!ff! !tenuto![Aa]!tenuto![Aa]!tenuto![Aa] |: !///-![fad']2- d2- | [dfad'] z ^g2 | %3
w: |||
 !///-![cfa]2- A2- | [Acfa] F GA | cABc | e2 (!^!c2 | A) z z2 | z!pp! EFG |{FG} F E2 E | E^F^Gc | %11
w: ||||||||
 (3B/c/B/ A3- | A2 z A | BB BB | BB cd | (3B/c/B/ A3- | A4 | z [CEG]/[CEG]/ [CEG][CEG] | %18
w: |||||||
 z [B,DG] z [B,DG] | z [CEG]2 [CEG] | z [CEG] z [CEG] | z B/B/ B^c | BA{/B} A^G | B4- | B2 z (E | %25
w: |||||||
 c2 ^G2 | A2 Bd | (3B/)c/B/ A3- | AABc | dddd | B2 d2 | e4- | e2 z (e | eAAA | B!>(!^cde | %35
w: ||||||||||
 f>)!>)!e d2- | d4 | BB/c/ dB | cA Bd | (3(B/c/B/) A3- | A2 z2 || %41
w: ||||||
!ff! !tenuto![eae']!tenuto![eae']/!tenuto![eae']/ !tenuto![eae']!tenuto![eae'] | %42
w: |
 !tenuto![^da^d']!tenuto![dad'] !tenuto![faf']!tenuto![faf'] | [eac'e'][cac'] [Aca]2- | %44
w: ||
 [Acea]2 z2 | z [CEA]2 [CEA] | z [CEA]2 [CEA] | z [DEB]2 [DEB] | z [DEB]2 [DEB] | %49
w: |||||
 !tenuto![dad']!tenuto![dad']/!tenuto![dad']/ !tenuto![dad']!tenuto![dad'] | %50
w: allarg. . . . *|
 !tenuto![dd']!tenuto![dd'][fbf'][gg'] | [ege'][dfd'] [cec']2- | [cec'] z (ec | _B2) ^GB | %54
w: e rinf. * *||* col canto *||
 (3(_B/c/B/) A3- |1,2 !tenuto![CA]!ff! !tenuto![Aa]!tenuto![Aa]!tenuto![Aa] :|3 %56
w: ||
 [CA] z!ff! !arpeggio![Acea] z |] %57
w: |
V:3
 z2 z |: [D,,D,][D,F,A,][F,A,D][A,DF] | [E,,B,,E,]2 z2 | [F,,F,][F,A,C][A,CF][E,,E,] | %4
 [D,,D,] [D,F,A,]2 [D,F,A,] | [E,,E,] CB,A, | E,2 E,,2 | A,, z E,, z | A,,, z z2 | %9
 z [E,A,]2 [E,A,] | z [E,^G,]2 [E,G,] | z [E,A,]2 [E,A,] | E,2 A,,2 | z [F,B,]2 [F,A,] | %14
 z [^G,E]2 [G,D] | A,, [E,A,C]2 E,, | A,, [E,A,C]2 [E,A,C] | G,4 | F,G,A,G, | E,4- | E,4 | B,3 ^C | %22
 B,2 B,,2 | E,3{/^A,,} B,, | E,,2 z (E, | A,,2 B,,2 | C,2 D,)[A,D] | A,, [E,A,C]2 [E,A,C] | %28
 A,, [E,A,C]2 [E,A,C] | [D,,D,] [F,A,D]2 [F,A,C] | B,2 A,2 | ^G,3{/^A,,} !^!B,, | !^!E,, z z2 | %33
 ([E,,A,,]A,ED | ^C2 A,2) | (D,,A,,D,E, | F,2 A,2) | D, [A,D]2 [D,,D,] | [D,,E,][E,A,C] [E,,E,]2 | %39
 A,,2 z E,, | A,,,2 z2 || [A,,,A,,] [E,A,C]2 [E,A,C] | [F,,,F,,] [F,A,^D]2 [F,A,D] | %43
 [A,,,A,,] [E,A,C]2 [E,A,C]- | [E,A,C] ECE, | A,,2 (B,,C, | E,2 A,,2 |({B,,A,,)} ^G,,4) | %48
 [E,,B,,] z z2 | [D,,D,] [F,A,D]2 [F,B,D] | [G,,G,] [F,G,B,]2 [F,G,B,] | %51
 [C,,C,] [E,G,C]2 [B,,,B,,] | [A,,,A,,] [E,A,C]2 [E,A,C] | [D,,D,]2 [E,,E,]2 | A,, [F,A,]2 E,, |1,2 %55
 [A,,,A,,] z z2 :|3 z2 !arpeggio![A,,E,A,] z |] %57
V:4
 x3 |: x4 | [DFA] [Bd'] [ee']/[dd']/[cc']/[Bb]/ | x4 | x4 | x4 | z2 (([D^G]2 | [CE])) x3 | x4 | %9
 C4 | D4 | E4 | z [CEA] z [CE] | x4 | x4 | x4 | x4 | x4 | x4 | x4 | x4 | x [^D^F]/[DF]/ [DF] z | %22
 ^D4 | z [B,E^G]2 z | z [B,E^G]2 x | z [CE] z [DE] | z [CE] z F | z (E2 G/F/ | E4) | z (F2 A/G/) | %30
 z!<(! [DF] z [FB] | z [EB]2 [E^GB] | z!<)! [E^GB]2 z | z =GGG | G4 | A>G F2- | F4 | F4 | %38
 E2 [D^G]2 | z [CE]2 [CE]- | [CE] z z2 || x4 | x4 | x4 | x4 | x4 | x4 | x4 | x4 | x4 | x4 | x4 | %52
 x4 | x4 | x4 |1,2 x4 :|3 x4 |] %57
V:5
 x3 |: x4 | x4 | x4 | x4 | x4 | x4 | x4 | x4 | A,,4 | B,,4 | C,4 | x4 | D,4 | E,4 | x4 | x4 | x4 | %18
 x4 | x4 | G,,2 C,,2 | x4 | x4 | x4 | x4 | x4 | x4 | x4 | x4 | x4 | x4 | x4 | x4 | x4 | x4 | x4 | %36
 x4 | x4 | x4 | x4 | x4 || x4 | x4 | x4 | x4 | x4 | x4 | x4 | x4 | x4 | x4 | x4 | x4 | x4 | x4 |1,2 %55
 x4 :|3 x4 |] %57

